X:25001
T:Young Collins
R:Hornpipe
C:Trad. Morris Dance
O:England
M:4/4
L:1/8
Q:1/4=180
K:G
"G"GABc d2 d2|"C"c2 e2 "Am"A2 Bc|"G"d2 d2 "C"e2 dc|"G"B2 A2 G4:|
"Em"E2 D2 EF G2|"Am"A2 A2 "G"G3 A|B2 A2 Bc d2|"Em"e2 e2 "G"dcBA|
"G"GABc d2 d2|"C"c2 e2 "Am"A2 Bc|"G"d2 d2 "C"e2 dc|"G"B2 A2 G4:|
% --------------------------------- Z ---------------------------------------
% --------------------------------- Addendum ---------------------------------------
%%newpage
%%text
%%begintext justify
%%Addendum of recently added tunes, which will be put into alphabetic order at the next major release.
%%endtext
%%text
%%text None at present.
%%text
%%text The End.
%%text
% --------------------------------- The End ---------------------------------------


0